custom_files/u160.svg

<svg width="19" height="19" viewBox="-237 578 19 19" xmlns="http://www.w3.org/2000/svg"><path d="M-227.5 578c5.32 0 9.5 4.18 9.5 9.5s-4.18 9.5-9.5 9.5-9.5-4.18-9.5-9.5 4.18-9.5 9.5-9.5z" fill="#aaa5a5"/><path d="M-227.5 578.5c5.04 0 9 3.96 9 9s-3.96 9-9 9-9-3.96-9-9 3.96-9 9-9z" stroke="#797979" fill="none"/></svg>

﻿<?xml version="1.0" encoding="utf-8"?>
<svg version="1.1" xmlns:xlink="http://www.w3.org/1999/xlink" width="19px" height="19px" viewBox="-237 578  19 19" xmlns="http://www.w3.org/2000/svg">
  <path d="M -227.5 578  C -222.18 578  -218 582.18  -218 587.5  C -218 592.82  -222.18 597  -227.5 597  C -232.82 597  -237 592.82  -237 587.5  C -237 582.18  -232.82 578  -227.5 578  Z " fill-rule="nonzero" fill="#aaa5a5" stroke="none" />
  <path d="M -227.5 578.5  C -222.46 578.5  -218.5 582.46  -218.5 587.5  C -218.5 592.54  -222.46 596.5  -227.5 596.5  C -232.54 596.5  -236.5 592.54  -236.5 587.5  C -236.5 582.46  -232.54 578.5  -227.5 578.5  Z " stroke-width="1" stroke="#797979" fill="none" />
</svg>
